img/icons/lk02.svg

<svg width="32" height="32" viewBox="0 0 32 32" fill="none" xmlns="http://www.w3.org/2000/svg">
<g style="mix-blend-mode:multiply">
<path fill-rule="evenodd" clip-rule="evenodd" d="M12.9959 5.93108C13.7482 5.28967 14.8391 4.92419 16 4.92419C17.1609 4.92419 18.2518 5.28967 19.0041 5.93108H20C21.1046 5.93108 22 6.83268 22 7.94486L23 7.94486C24.1046 7.94486 25 8.84647 25 9.95865V25.062C25 26.1742 24.1046 27.0758 23 27.0758H9C7.89543 27.0758 7 26.1742 7 25.062V9.95865C7 8.84647 7.89543 7.94486 9 7.94486L10 7.94486C10 6.83268 10.8954 5.93108 12 5.93108H12.9959ZM20 10.9655C20.7403 10.9655 21.3866 10.5606 21.7324 9.95865H23V25.062H9V9.95865H10.2676C10.6134 10.5606 11.2597 10.9655 12 10.9655H20ZM12 20.0275V18.0138H18V20.0275H12ZM12 13.9862V16H20V13.9862H12ZM13.8576 7.94487L14.1566 7.59787C14.4852 7.21662 15.1894 6.93797 16 6.93797C16.8106 6.93797 17.5148 7.21662 17.8434 7.59787L18.1424 7.94487H20V8.95176H12V7.94487H13.4013H13.8576Z" fill="#0095BF"/>
</g>
</svg>

<svg xmlns="http://www.w3.org/2000/svg" fill="none" viewBox="0 0 32 32"><path fill="#0095bf" fill-rule="evenodd" d="M12.996 5.931c.752-.641 1.843-1.007 3.004-1.007 1.16 0 2.252.366 3.004 1.007H20c1.105 0 2 .902 2 2.014h1c1.105 0 2 .901 2 2.014v15.103a2.007 2.007 0 0 1-2 2.014H9c-1.105 0-2-.902-2-2.014V9.959c0-1.113.895-2.014 2-2.014h1c0-1.112.895-2.014 2-2.014zM20 10.966c.74 0 1.387-.405 1.732-1.007H23v15.103H9V9.959h1.268A2 2 0 0 0 12 10.966zm-8 9.062v-2.014h6v2.014zm0-6.042V16h8v-2.014zm1.858-6.041.299-.347c.328-.381 1.032-.66 1.843-.66s1.515.279 1.843.66l.3.347H20v1.007h-8V7.945h1.858" clip-rule="evenodd" style="mix-blend-mode:multiply"/></svg>
